svg/radio_fm.svg

<svg xmlns="http://www.w3.org/2000/svg" viewBox="0 0 24 24"><path d="M3 7v10h2v-4h3v-2H5V9h4V7zm10 0a2 2 0 0 0-2 2v8h2V9h2v7h2V9h2v8h2V9a2 2 0 0 0-2-2z"/></svg>

<?xml version="1.0" encoding="UTF-8"?><!DOCTYPE svg PUBLIC "-//W3C//DTD SVG 1.1//EN" "http://www.w3.org/Graphics/SVG/1.1/DTD/svg11.dtd"><svg xmlns="http://www.w3.org/2000/svg" xmlns:xlink="http://www.w3.org/1999/xlink" version="1.1" id="mdi-radio-fm" width="24" height="24" viewBox="0 0 24 24"><path d="M3,7V17H5V13H8V11H5V9H9V7H3M13,7A2,2 0 0,0 11,9V17H13V9H15V16H17V9H19V17H21V9A2,2 0 0,0 19,7H13Z" /></svg>
